X:1
T:Grey Cock
M:4/4
L:1/8
K:A
 A,3/2- B,/2 CD E2 E2| F2 d3/2 B/2A-GF-E| A2 GA F2 E2| E6 D2| C3/2 B,/2 CA C2B,-A,|\
 B,3/2 A,/2 B,C D2E-F| E2 CEE-D CB,| A,8|
